flaticon/real-estate/house.svg

<svg xmlns="http://www.w3.org/2000/svg" width="32" height="32" viewBox="0 0 24 24">
    <path d="M 22.914062 8.847656 L 13.71875 0.691406 C 12.757812 -0.230469 11.242188 -0.230469 10.28125 0.691406 L 7.203125 3.488281 L 7.203125 2.410156 L 7.601562 2.410156 C 7.839844 2.410156 8 2.25 8 2.007812 L 8 0.410156 C 8 0.171875 7.839844 0.0117188 7.601562 0.0117188 L 2.804688 0.0117188 C 2.5625 0.0117188 2.402344 0.171875 2.402344 0.410156 L 2.402344 2.007812 C 2.402344 2.25 2.5625 2.410156 2.804688 2.410156 L 3.203125 2.410156 L 3.203125 7.007812 L 1.085938 8.847656 C 0.804688 9.125 0.726562 9.527344 0.84375 9.847656 C 0.964844 10.164062 1.324219 10.40625 1.683594 10.40625 L 3.203125 10.40625 L 3.203125 21.601562 L 2.804688 21.601562 C 2.5625 21.601562 2.402344 21.761719 2.402344 22 L 2.402344 23.601562 C 2.402344 23.839844 2.5625 24 2.804688 24 L 21.195312 24 C 21.4375 24 21.597656 23.839844 21.597656 23.558594 L 21.597656 21.960938 C 21.597656 21.722656 21.4375 21.5625 21.195312 21.5625 L 20.796875 21.5625 L 20.796875 10.367188 L 22.316406 10.367188 C 22.714844 10.367188 23.035156 10.164062 23.15625 9.804688 C 23.273438 9.484375 23.195312 9.085938 22.914062 8.847656 Z M 22.394531 9.566406 C 22.355469 9.605469 22.316406 9.605469 22.316406 9.605469 L 20.394531 9.605469 C 20.15625 9.605469 19.996094 9.765625 19.996094 10.003906 L 19.996094 22 C 19.996094 22.242188 20.15625 22.402344 20.394531 22.402344 L 20.796875 22.402344 L 20.796875 23.199219 L 3.203125 23.199219 L 3.203125 22.402344 L 3.601562 22.402344 C 3.84375 22.402344 4.003906 22.242188 4.003906 22 L 4.003906 10.003906 C 4.003906 9.765625 3.84375 9.605469 3.601562 9.605469 L 1.683594 9.605469 C 1.644531 9.605469 1.644531 9.605469 1.605469 9.566406 C 1.605469 9.527344 1.605469 9.484375 1.644531 9.445312 L 3.882812 7.527344 C 3.964844 7.445312 4.003906 7.328125 4.003906 7.207031 L 4.003906 2.007812 C 4.003906 1.769531 3.84375 1.609375 3.601562 1.609375 L 3.203125 1.609375 L 3.203125 0.808594 L 7.203125 0.808594 L 7.203125 1.609375 L 6.800781 1.609375 C 6.5625 1.609375 6.402344 1.769531 6.402344 2.007812 L 6.402344 4.40625 C 6.402344 4.566406 6.480469 4.726562 6.640625 4.847656 C 6.800781 4.886719 6.960938 4.886719 7.082031 4.769531 L 10.839844 1.328125 C 11.480469 0.691406 12.480469 0.691406 13.160156 1.328125 L 22.355469 9.484375 C 22.394531 9.484375 22.4375 9.527344 22.394531 9.566406 Z M 22.394531 9.566406"/>
    <path d="M 12.199219 5.96875 C 10.519531 5.96875 8.921875 6.6875 7.761719 7.964844 C 6.082031 9.847656 5.960938 12.644531 7.441406 14.644531 L 11.878906 21.441406 C 11.921875 21.5625 12.078125 21.640625 12.199219 21.640625 C 12.320312 21.640625 12.441406 21.5625 12.558594 21.402344 L 16.957031 14.644531 C 18.4375 12.605469 18.316406 9.804688 16.636719 7.925781 C 15.480469 6.6875 13.878906 5.96875 12.199219 5.96875 Z M 16.277344 14.203125 L 12.199219 20.480469 L 8.082031 14.203125 C 6.800781 12.523438 6.921875 10.125 8.363281 8.527344 C 9.359375 7.445312 10.761719 6.808594 12.199219 6.808594 C 13.640625 6.808594 15.039062 7.445312 16 8.488281 C 17.4375 10.085938 17.558594 12.484375 16.277344 14.203125 Z M 16.277344 14.203125"/>
    <path d="M 11.960938 8.765625 C 10.441406 8.765625 9.199219 10.003906 9.199219 11.523438 C 9.199219 13.042969 10.441406 14.285156 11.960938 14.285156 C 13.4375 14.285156 14.679688 13.042969 14.71875 11.523438 C 14.71875 10.003906 13.480469 8.765625 11.960938 8.765625 Z M 11.960938 13.523438 C 10.878906 13.523438 10 12.644531 10 11.566406 C 10 10.484375 10.878906 9.605469 11.960938 9.605469 C 13 9.605469 13.917969 10.484375 13.917969 11.566406 C 13.917969 12.644531 13.039062 13.523438 11.960938 13.523438 Z M 11.960938 13.523438"/>
</svg>

<svg xmlns="http://www.w3.org/2000/svg" width="32" height="32" viewBox="0 0 24 24">
    <path d="M22.914 8.848L13.72.69a2.482 2.482 0 0 0-3.438 0L7.203 3.488V2.41h.399c.238 0 .398-.16.398-.402V.41c0-.238-.16-.398-.398-.398H2.805c-.243 0-.403.16-.403.398v1.598c0 .242.16.402.403.402h.398v4.598l-2.117 1.84a.962.962 0 0 0-.242 1c.12.316.48.558.84.558h1.52v11.196h-.4c-.241 0-.402.16-.402.398v1.602c0 .238.16.398.403.398h18.39c.242 0 .403-.16.403-.441V21.96c0-.238-.16-.398-.403-.398h-.398V10.367h1.52c.398 0 .718-.203.84-.562a.875.875 0 0 0-.243-.957zm-.52.718c-.039.04-.078.04-.078.04h-1.921c-.239 0-.399.16-.399.398V22c0 .242.16.402.399.402h.402v.797H3.203v-.797h.399c.242 0 .402-.16.402-.402V10.004c0-.238-.16-.399-.402-.399H1.684c-.04 0-.04 0-.079-.039 0-.039 0-.082.04-.12l2.238-1.919a.449.449 0 0 0 .12-.32v-5.2c0-.237-.16-.398-.401-.398h-.399v-.8h4v.8h-.402c-.239 0-.399.16-.399.399v2.398c0 .16.078.32.239.442.16.039.32.039.441-.078l3.758-3.442c.64-.637 1.64-.637 2.32 0l9.195 8.156c.04 0 .082.043.04.082zm0 0"/>
    <path d="M12.2 5.969c-1.68 0-3.278.718-4.438 1.996a5.307 5.307 0 0 0-.32 6.68l4.437 6.796c.043.122.2.2.32.2.121 0 .242-.078.36-.239l4.398-6.757c1.48-2.04 1.36-4.84-.32-6.72-1.157-1.237-2.758-1.956-4.438-1.956zm4.077 8.234L12.2 20.48l-4.117-6.277c-1.281-1.68-1.16-4.078.281-5.676C9.36 7.445 10.762 6.81 12.2 6.81c1.442 0 2.84.636 3.801 1.68 1.438 1.597 1.559 3.995.277 5.714zm0 0"/>
    <path d="M11.96 8.766a2.766 2.766 0 0 0-2.76 2.757 2.77 2.77 0 0 0 2.76 2.762c1.477 0 2.72-1.242 2.759-2.762a2.762 2.762 0 0 0-2.758-2.757zm0 4.757A1.961 1.961 0 0 1 10 11.566c0-1.082.879-1.96 1.96-1.96 1.04 0 1.958.878 1.958 1.96a1.96 1.96 0 0 1-1.957 1.957zm0 0"/>
</svg>
